img/facebook.svg

<svg width="20" height="20" viewBox="0 0 20 20" fill="none" xmlns="http://www.w3.org/2000/svg">
<path d="M10.001 0.00201416C4.47895 0.00201416 0.00195312 4.47901 0.00195312 10.001C0.00195312 14.991 3.65795 19.127 8.43895 19.88V12.892H5.89895V10.001H8.43895V7.79801C8.43895 5.29001 9.93195 3.90701 12.215 3.90701C13.309 3.90701 14.455 4.10201 14.455 4.10201V6.56101H13.191C11.951 6.56101 11.563 7.33301 11.563 8.12401V9.99901H14.334L13.891 12.89H11.563V19.878C16.344 19.129 20 14.992 20 10.001C20 4.47901 15.523 0.00201416 10.001 0.00201416Z" fill="#BDBDBD"/>
</svg>

<svg width="20" height="20" fill="none" xmlns="http://www.w3.org/2000/svg"><path d="M10.001.002C4.479.002.002 4.479.002 10.001c0 4.99 3.656 9.126 8.437 9.879v-6.988h-2.54v-2.891h2.54V7.798c0-2.508 1.493-3.891 3.776-3.891 1.094 0 2.24.195 2.24.195v2.459h-1.264c-1.24 0-1.628.772-1.628 1.563v1.875h2.771l-.443 2.891h-2.328v6.988C16.344 19.129 20 14.992 20 10.001 20 4.479 15.523.002 10.001.002z" fill="#BDBDBD"/></svg>
